svgs/1F639.svg

<svg xmlns="http://www.w3.org/2000/svg" xmlns:xlink="http://www.w3.org/1999/xlink" preserveAspectRatio="none" viewBox="0 0 72 72"><defs><path id="a" fill="#FCC21B" d="M66.85 48q.563-3.917-.05-8.15-.85-5.1-3.85-9.65.75-7.8.55-13.6-.45-9.5-3.55-11.65-2.5-1.65-8.3 3.05-3.95 3.05-7.6 7.35l-1.85 2.2q-3.3-.5-6.2-.5-2.9 0-6.2.5l-1.85-2.2q-3.65-4.3-7.6-7.35-5.8-4.7-8.3-3.05Q8.95 7.1 8.5 16.6q-.2 5.8.55 13.6-3 4.55-3.85 9.65-.6 4.25-.1 8.2.1.45.15.95.45 2.35 1.3 4.6l.2.5q.5 1 1.05 1.95.05 0 .05.05v.05q1.75 2.65 4.45 4.7 5.15 3.8 12.55 5.45Q31 67.55 35.8 67.55h.4q4.8 0 10.95-1.25 7.4-1.65 12.55-5.45 2.676-2.053 4.4-4.75h.05q.01-.026 0-.05.614-.94 1.1-1.95l.2-.5q.845-2.256 1.25-4.65.108-.452.15-.95z"/><path id="b" fill="#FCD995" d="M-24.95 46.55q2.7-2.05 4.45-4.7v-.05q0-.05.05-.05.55-.95 1.05-1.95l.2-.5q.85-2.25 1.3-4.6.05-.5.15-.95-15.25-5.2-30.9-5.3-15.65.1-30.9 5.3.1.45.15.95.45 2.35 1.3 4.6l.2.5q.5 1 1.05 1.95.05 0 .05.05v.05q1.75 2.65 4.45 4.7 5.15 3.8 12.55 5.45 6.15 1.25 10.95 1.25h.4q4.8 0 10.95-1.25 7.4-1.65 12.55-5.45z"/><path id="c" fill="#FCD995" d="M13.35 7.35q-3.4 1.4-.85 19.35 5.7-4.75 13.1-8.25Q16.85 6.1 13.35 7.35m46.1 19.3Q62.045 8.757 58.6 7.3q-3.469-1.22-12.25 11.15 7.46 3.488 13.1 8.2z"/><path id="e" fill="#2F2F2F" d="M31.2 43.1q2.95.6 4.8 2.45 1.85-1.85 4.8-2.45-.95-2.7-4.75-2.7-3.95 0-4.85 2.7z"/><path id="h" fill="#2F2F2F" d="M16.75 26.95q-1.35 1.1-2 2.2-.3.65-.2 1.15.25.7.7.95.55.3 1.15.15.65-.15.95-.65.35-.7 1.4-1.45 1.75-1.35 4.05-1.35t4.1 1.35q.95.7 1.35 1.45.45.7 1.3.7.55 0 .8-.2.55-.3.7-.9.15-.6-.15-1.2-.65-1.1-2-2.2-2.65-2.05-6.1-2.05-3.5 0-6.05 2.05z"/><path id="i" fill="#2F2F2F" d="M57.3 29.15q-.65-1.1-2-2.2-2.55-2.05-6.1-2.05-3.5 0-6.05 2.05l-2 2.2q-.35.5-.2 1.15.15.65.75.95.5.3 1.15.15.6-.15.9-.7l1.35-1.4q1.75-1.35 4.1-1.35 2.4 0 4.1 1.35.95.7 1.35 1.4.55.75 1.35.75.5 0 .75-.2.55-.25.7-.95.15-.6-.15-1.15z"/><path id="j" fill="#ED6C30" d="M56.65 38.75q-1.25-.8-3.2-.65l-5.15 1.4q-4.95 1.4-12.5 1.45-7.65 0-12.3-1.4l-4.95-1.45q-2-.15-3.25.65-1.8 1.2-.75 4.75t4 6.6q2.65 2.65 6.15 4.4 5.1 2.55 11.3 2.55 6.2 0 11.3-2.55 3.4-1.7 6.05-4.4 2.95-2.95 4.1-6.6 1.05-3.55-.8-4.75z"/><path id="l" fill="#40C0E7" d="M60.5 34.1l-1.3-.45q-.9-.25-1.3-.25-1.15.15-.85 1.85l1.65 7.85q.05.75.8 2.8.8 2.2 1.4 3.1.6 1.05 2.05 1.8 1.35.75 2.85.85 2 .1 3.6-1.25 1.75-1.45 1.95-3.55.35-2.8-1.1-5.5-1.35-2.45-3.85-4.2-3.1-2.15-5.9-3.05z"/><path id="m" fill="#40C0E7" d="M14.1 33.4q-.35 0-1.35.25l-1.3.45q-2.85.95-5.9 3.05-2.45 1.7-3.8 4.2Q.3 43.9.6 46.85q.2 2.15 2 3.55 1.6 1.35 3.6 1.25 1.5-.1 2.75-.85 1.45-.75 2.15-1.8.6-.9 1.4-3.1.65-1.8.8-2.8 1.3-6.35 1.55-7.85.45-1.7-.75-1.85z"/><path id="d" fill="none" stroke="#2F2F2F" stroke-linecap="round" stroke-linejoin="round" stroke-width="2" d="M56.45 39.55q6.5-2.85 14.4-3.3M60.15 47q4.7.25 8.7 1.4m-10.7-5.3q5.85-1.05 11.75-.6m-54.3-2.95q-6.5-2.85-14.4-3.3M11.95 47q-4.7.3-8.75 1.4M14 43.1Q8.1 42 2.25 42.5"/><path id="f" fill="none" stroke="#2F2F2F" stroke-linecap="round" stroke-linejoin="round" stroke-width="2" d="M36.03 44.953v3.464"/><path id="g" fill="none" stroke="#2F2F2F" stroke-linecap="round" stroke-linejoin="round" stroke-width="1" d="M30.993 42.382q3.096.63 5.038 2.571 1.941-1.941 5.037-2.57-.997-2.834-4.985-2.834-4.145 0-5.09 2.833z"/><path id="k" fill="none" stroke="#2F2F2F" stroke-linecap="round" stroke-linejoin="round" stroke-width="2" d="M48.5 21.35q5.7.4 8.65 4.65m-33.7-4.65q-5.65.3-8.6 4.6"/></defs><use xlink:href="#a"/><use transform="translate(84.65 14.3)" xlink:href="#b"/><use xlink:href="#c"/><use xlink:href="#d"/><g transform="matrix(1.04947 0 0 1.04947 -1.75 -2.85)"><use xlink:href="#e"/><use transform="translate(1.65 2.7) scale(.95285)" xlink:href="#f"/><use transform="translate(1.65 2.7) scale(.95285)" xlink:href="#g"/></g><use transform="translate(2.25 8.95) scale(.93704)" xlink:href="#h"/><use transform="translate(2.25 8.95) scale(.93704)" xlink:href="#i"/><use transform="matrix(.71953 0 0 .71953 10.1 17.9)" xlink:href="#j"/><use transform="translate(0 6.75)" xlink:href="#k"/><use transform="translate(-4.7 3.75) scale(1.04776)" xlink:href="#l"/><use transform="translate(1.3 3.75) scale(1.04776)" xlink:href="#m"/></svg>

<svg xmlns="http://www.w3.org/2000/svg" version="1.1" xmlns:xlink="http://www.w3.org/1999/xlink" preserveAspectRatio="none" x="0px" y="0px" width="72px" height="72px" viewBox="0 0 72 72">
<defs>
<g id="Layer0_0_FILL">
<path fill="#FCC21B" stroke="none" d="
M 66.85 48
Q 67.4126953125 44.083203125 66.8 39.85 65.95 34.75 62.95 30.2 63.7 22.4 63.5 16.6 63.05 7.1 59.95 4.95 57.45 3.3 51.65 8 47.7 11.05 44.05 15.35
L 42.2 17.55
Q 38.9 17.05 36 17.05 33.1 17.05 29.8 17.55
L 27.95 15.35
Q 24.3 11.05 20.35 8 14.55 3.3 12.05 4.95 8.95 7.1 8.5 16.6 8.3 22.4 9.05 30.2 6.05 34.75 5.2 39.85 4.6 44.1 5.1 48.05 5.2 48.5 5.25 49 5.7 51.35 6.55 53.6 6.65 53.85 6.75 54.1 7.25 55.1 7.8 56.05 7.85 56.05 7.85 56.1
L 7.85 56.15
Q 9.6 58.8 12.3 60.85 17.45 64.65 24.85 66.3 31 67.55 35.8 67.55 35.9 67.55 36 67.55 36.1 67.55 36.2 67.55 41 67.55 47.15 66.3 54.55 64.65 59.7 60.85 62.376171875 58.7970703125 64.1 56.1
L 64.15 56.1
Q 64.159375 56.0740234375 64.15 56.05 64.7638671875 55.110546875 65.25 54.1 65.34921875 53.85078125 65.45 53.6 66.29453125 51.344140625 66.7 48.95 66.8080078125 48.4984375 66.85 48 Z"/>
</g>

<g id="Layer0_0_MEMBER_0_FILL">
<path fill="#FCD995" stroke="none" d="
M -24.95 46.55
Q -22.25 44.5 -20.5 41.85
L -20.5 41.8
Q -20.5 41.75 -20.45 41.75 -19.9 40.8 -19.4 39.8 -19.3 39.55 -19.2 39.3 -18.35 37.05 -17.9 34.7 -17.85 34.2 -17.75 33.75 -33 28.55 -48.65 28.45 -64.3 28.55 -79.55 33.75 -79.45 34.2 -79.4 34.7 -78.95 37.05 -78.1 39.3 -78 39.55 -77.9 39.8 -77.4 40.8 -76.85 41.75 -76.8 41.75 -76.8 41.8
L -76.8 41.85
Q -75.05 44.5 -72.35 46.55 -67.2 50.35 -59.8 52 -53.65 53.25 -48.85 53.25 -48.75 53.25 -48.65 53.25 -48.55 53.25 -48.45 53.25 -43.65 53.25 -37.5 52 -30.1 50.35 -24.95 46.55 Z"/>
</g>

<g id="Layer0_0_MEMBER_1_FILL">
<path fill="#FCD995" stroke="none" d="
M 13.35 7.35
Q 9.95 8.75 12.5 26.7 18.2 21.95 25.6 18.45 16.85 6.1 13.35 7.35
M 59.45 26.65
Q 62.0451171875 8.75703125 58.6 7.3 55.1310546875 6.0791015625 46.35 18.45 53.8107421875 21.937890625 59.45 26.65 Z"/>
</g>

<g id="Layer0_2_FILL">
<path fill="#2F2F2F" stroke="none" d="
M 31.2 43.1
Q 34.15 43.7 36 45.55 37.85 43.7 40.8 43.1 39.85 40.4 36.05 40.4 32.1 40.4 31.2 43.1 Z"/>
</g>

<g id="Layer0_3_MEMBER_0_MEMBER_0_MEMBER_0_MEMBER_0_FILL">
<path fill="#2F2F2F" stroke="none" d="
M 16.75 26.95
Q 15.4 28.05 14.75 29.15 14.45 29.8 14.55 30.3 14.8 31 15.25 31.25 15.8 31.55 16.4 31.4 17.05 31.25 17.35 30.75 17.7 30.05 18.75 29.3 20.5 27.95 22.8 27.95 25.1 27.95 26.9 29.3 27.85 30 28.25 30.75 28.7 31.45 29.55 31.45 30.1 31.45 30.35 31.25 30.9 30.95 31.05 30.35 31.2 29.75 30.9 29.15 30.25 28.05 28.9 26.95 26.25 24.9 22.8 24.9 19.3 24.9 16.75 26.95 Z"/>
</g>

<g id="Layer0_3_MEMBER_1_MEMBER_0_MEMBER_0_MEMBER_0_FILL">
<path fill="#2F2F2F" stroke="none" d="
M 57.3 29.15
Q 56.65 28.05 55.3 26.95 52.75 24.9 49.2 24.9 45.7 24.9 43.15 26.95
L 41.15 29.15
Q 40.8 29.65 40.95 30.3 41.1 30.95 41.7 31.25 42.2 31.55 42.85 31.4 43.45 31.25 43.75 30.7
L 45.1 29.3
Q 46.85 27.95 49.2 27.95 51.6 27.95 53.3 29.3 54.25 30 54.65 30.7 55.2 31.45 56 31.45 56.5 31.45 56.75 31.25 57.3 31 57.45 30.3 57.6 29.7 57.3 29.15 Z"/>
</g>

<g id="Layer0_4_MEMBER_0_FILL">
<path fill="#ED6C30" stroke="none" d="
M 56.65 38.75
Q 55.4 37.95 53.45 38.1
L 48.3 39.5
Q 43.35 40.9 35.8 40.95 28.15 40.95 23.5 39.55
L 18.55 38.1
Q 16.55 37.95 15.3 38.75 13.5 39.95 14.55 43.5 15.6 47.05 18.55 50.1 21.2 52.75 24.7 54.5 29.8 57.05 36 57.05 42.2 57.05 47.3 54.5 50.7 52.8 53.35 50.1 56.3 47.15 57.45 43.5 58.5 39.95 56.65 38.75 Z"/>
</g>

<g id="Layer0_6_MEMBER_0_MEMBER_0_MEMBER_0_MEMBER_0_FILL">
<path fill="#40C0E7" stroke="none" d="
M 60.5 34.1
L 59.2 33.65
Q 58.3 33.4 57.9 33.4 56.75 33.55 57.05 35.25
L 58.7 43.1
Q 58.75 43.85 59.5 45.9 60.3 48.1 60.9 49 61.5 50.05 62.95 50.8 64.3 51.55 65.8 51.65 67.8 51.75 69.4 50.4 71.15 48.95 71.35 46.85 71.7 44.05 70.25 41.35 68.9 38.9 66.4 37.15 63.3 35 60.5 34.1 Z"/>
</g>

<g id="Layer0_6_MEMBER_1_MEMBER_0_MEMBER_0_MEMBER_0_FILL">
<path fill="#40C0E7" stroke="none" d="
M 14.1 33.4
Q 13.75 33.4 12.75 33.65
L 11.45 34.1
Q 8.6 35.05 5.55 37.15 3.1 38.85 1.75 41.35 0.3 43.9 0.6 46.85 0.8 49 2.6 50.4 4.2 51.75 6.2 51.65 7.7 51.55 8.95 50.8 10.4 50.05 11.1 49 11.7 48.1 12.5 45.9 13.15 44.1 13.3 43.1 14.6 36.75 14.85 35.25 15.3 33.55 14.1 33.4 Z"/>
</g>

<path id="Layer0_1_1_STROKES" stroke="#2F2F2F" stroke-width="2" stroke-linejoin="round" stroke-linecap="round" fill="none" d="
M 56.45 39.55
Q 62.95 36.7 70.85 36.25
M 60.15 47
Q 64.85 47.25 68.85 48.4
M 58.15 43.1
Q 64 42.05 69.9 42.5
M 15.6 39.55
Q 9.1 36.7 1.2 36.25
M 11.95 47
Q 7.25 47.3 3.2 48.4
M 14 43.1
Q 8.1 42 2.25 42.5"/>

<path id="Layer0_2_1_STROKES" stroke="#2F2F2F" stroke-width="2" stroke-linejoin="round" stroke-linecap="round" fill="none" d="
M 36.0308837890625 44.953312683105466
L 36.0308837890625 48.416560363769534"/>

<path id="Layer0_2_2_STROKES" stroke="#2F2F2F" stroke-width="1" stroke-linejoin="round" stroke-linecap="round" fill="none" d="
M 30.9934326171875 42.38211364746094
Q 34.08936614990234 43.01179504394531 36.0308837890625 44.953312683105466 37.97240142822266 43.01179504394531 41.0683349609375 42.38211364746094 40.07133941650391 39.548547363281244 36.08335723876953 39.548547363281244 31.937954711914067 39.548547363281244 30.9934326171875 42.38211364746094 Z"/>

<path id="Layer0_5_MEMBER_0_MEMBER_0_1_STROKES" stroke="#2F2F2F" stroke-width="2" stroke-linejoin="round" stroke-linecap="round" fill="none" d="
M 48.5 21.35
Q 54.2 21.75 57.15 26
M 23.45 21.35
Q 17.8 21.65 14.85 25.95"/>
</defs>

<g id="Layer_1">
<g transform="matrix( 1, 0, 0, 1, 0,0) ">
<use xlink:href="#Layer0_0_FILL"/>
</g>

<g transform="matrix( 1, 0, 0, 1, 84.65,14.3) ">
<use xlink:href="#Layer0_0_MEMBER_0_FILL"/>
</g>

<g transform="matrix( 1, 0, 0, 1, 0,0) ">
<use xlink:href="#Layer0_0_MEMBER_1_FILL"/>
</g>

<g transform="matrix( 1, 0, 0, 1, 0,0) ">
<use xlink:href="#Layer0_1_1_STROKES"/>
</g>

<g transform="matrix( 1.049468994140625, 0, 0, 1.049468994140625, -1.75,-2.85) ">
<use xlink:href="#Layer0_2_FILL"/>

<use xlink:href="#Layer0_2_1_STROKES" transform="matrix( 0.952850341796875, 0, 0, 0.952850341796875, 1.65,2.7) "/>

<use xlink:href="#Layer0_2_2_STROKES" transform="matrix( 0.952850341796875, 0, 0, 0.952850341796875, 1.65,2.7) "/>
</g>

<g transform="matrix( 0.937042236328125, 0, 0, 0.937042236328125, 2.25,8.95) ">
<use xlink:href="#Layer0_3_MEMBER_0_MEMBER_0_MEMBER_0_MEMBER_0_FILL"/>
</g>

<g transform="matrix( 0.937042236328125, 0, 0, 0.937042236328125, 2.25,8.95) ">
<use xlink:href="#Layer0_3_MEMBER_1_MEMBER_0_MEMBER_0_MEMBER_0_FILL"/>
</g>

<g transform="matrix( 0.7195281982421875, 0, 0, 0.7195281982421875, 10.1,17.9) ">
<use xlink:href="#Layer0_4_MEMBER_0_FILL"/>
</g>

<g transform="matrix( 1, 0, 0, 1, 0,6.75) ">
<use xlink:href="#Layer0_5_MEMBER_0_MEMBER_0_1_STROKES"/>
</g>

<g transform="matrix( 1.047760009765625, 0, 0, 1.047760009765625, -4.7,3.75) ">
<use xlink:href="#Layer0_6_MEMBER_0_MEMBER_0_MEMBER_0_MEMBER_0_FILL"/>
</g>

<g transform="matrix( 1.047760009765625, 0, 0, 1.047760009765625, 1.3,3.75) ">
<use xlink:href="#Layer0_6_MEMBER_1_MEMBER_0_MEMBER_0_MEMBER_0_FILL"/>
</g>
</g>
</svg>
